X: 331
T: THE GREEN BUSHES
T: Na tomanaidhe glais
B: O'Neill's 331
M: 3/4
L: 1/8
Z: 1999 by John Chambers <jc@trillian.mit.edu>
N: "Slow"
K:A
EE \
| A2 c2 A2 | (G>A) (Bc) d2 | e2 fd B>A | G4 ((3EFG) \
| A2 c2 A2 | (GABc) d2 | e2 (ge) (f^d) | e4 (cd) ||
| e2 c2 aa | (f2 e2) (f/e/c/B/) | A2 (AB c>A) | F4 ((3EFG) \
| A2 c2 A2 | (GA) B2 (cd) | e2 (fd) B>G | A2- Az ||


